X: 6
T: The Woman Imitates the Buffalo
N: Derived from pawnee06.krn
O: Oklahoma, U.S.A.
N: from Pawnee Music by Frances Densmore, 1926
Z: transcribed to **kern format by David Huron, August 2000
C: Skidi and Chaui Bands, 1919
L: 1/8
M: 2/4
Q: 1/4=88
K: E clef=bass
%%linebreak <none>
(3E E E E3/ E/ | 
(3(E D) EC2 | 
C2(C A,) | 
C A, G, G, ]|:  
E EE2 [I:setbarnb 6]| 
(3(E D) E (C3/ B,/) | 
(C> A,) (C3/ G,/) | 
C/ (C A,/) C/ C E,/[M:3/4] | 
G,< E, (E, D,)C,2[M:2/4] | 
(3E, E, E, C,3/ B,,/ | 
C,> B,,C,2 | 
(3C, C, C,G,,2 | 
G,,2z E | 
E> G, G,/> G,/ G,/ G,/ | 
G,,2z2 |]  



